X:1
T:Title
%%score { ( 1 3 ) | ( 2 4 ) }
L:1/8
M:6/8
K:Db
V:1 treble nm="Grand Piano"
V:3 treble 
V:2 bass 
V:4 bass 
V:1
 z3 z2[Q:1/4=87] [FA] | [FA][GB][FA] [A,DF][K:bass][G,DE][F,D] | %2
 [G,CE][A,DF][G,CE] [F,D]2[K:treble] [DFA] | [Fd][Ac][GB] [FA][DF][FA] | [GB][FA][DF] [CE]2 [GA] | %5
 [FA][GB][FA] FED |[M:7/8] BBB d3 d |[M:13/16] [Fd][Ac][GB][FA][A,DF]3/2[K:bass][F,D] | %8
[M:5/8] [G,CE][A,DF][G,CE] [F,D]2 |[M:1/8][K:treble] [FA] |[M:3/4] [Fd]2 [Fd]c de | %11
[M:5/8] [Fd]-[Fd]- [Fd]3 |[M:1/8] [DFA] |[M:3/4] B2 Bd dd | [FA]4- [FA][DFA] | A2 G G2 B | %16
 [GB]2 [FA] [FA]2 [Fd] | [GB]2 [GB][=Ge] [Ge][GB] |[M:7/8] e-e-e- e3 z |[M:3/4] [Fd]2 [Fd]c de | %20
 [Fd]4- [Fd][DFA] | B2 Bd dd | [FA]4- [FA][FA] |[M:7/8] [Fd]2 [Fd] [Fd]3 [FA] | %24
 [GB]2 [GB] [=Ge]3 [Gd] | c2 c AA3/2e3/2 |[M:5/8] d-d- d3 |] %27
V:2
 z3 z2 [D,D] | [D,D][D,D][D,D] D,D,D, | A,,A,,A,, D,2 D, | [D,A,][D,C][D,D] [D,D][D,A,][D,D] | %4
 [G,D][D,D][D,A,] [A,,A,]2 [A,C] | [D,D][D,D][D,D] [D,A,D][D,G,D][F,A,] | %6
[M:7/8] [G,G][G,DG][G,DG] [G,B,G]3 [G,B,G] |[M:13/16] [D,A,][D,D][D,D][D,D]D,3/2D, | %8
[M:5/8] A,,A,,A,, D,2 |[M:1/8] [D,D] |[M:3/4] [D,D]2 [D,D][K:treble][A,EG] [A,DF][A,CG] | %11
[M:5/8][K:bass] [D,D]2 D D2 |[M:1/8] D, |[M:3/4] [G,DG]2 [G,DG][G,B,G] [G,B,G][G,B,G] | %14
 [D,D]2 D D2 D, | [A,DF]2 [A,CE] [A,CE]2 [A,CG] | [D,D]2 [D,D] [D,D]2 [D,D] | %17
 [G,D]2 [G,D][E,E] [E,E][E,E] |[M:7/8][K:treble] [A,CA]2 [B,D] [CE]3 [A,CG] | %19
[M:3/4][K:bass] [D,D]2 [D,D][K:treble][A,EG] [A,DF][A,CG] | [D,D]2 D D2 D, | %21
 [G,DG]2 [G,DG][G,B,G] [G,B,G][G,B,G] | [D,D]2 D D2 [D,D] |[M:7/8] [D,D]2 [D,D] [D,D]3 [D,D] | %24
 [G,D]2 [G,D] [E,E]3 [E,E] | [A,EA]2 [A,EA] [A,CG][A,CG]3/2[A,CG]3/2 |[M:5/8][K:bass] A,2 B, A,2 |] %27
V:3
 x6 | x4[K:bass] x2 | x5[K:treble] x | x6 | x6 | x6 |[M:7/8] x7 |[M:13/16] x11/2[K:bass] x | %8
[M:5/8] x5 |[M:1/8][K:treble] x |[M:3/4] x6 |[M:5/8] x5 |[M:1/8] x |[M:3/4] x6 | x6 | x6 | x6 | %17
 x6 |[M:7/8] z2 =G _G3 A |[M:3/4] x6 | x6 | x6 | x6 |[M:7/8] x7 | x7 | x7 |[M:5/8] F2 G F2 |] %27
V:4
 x6 | x6 | x6 | x6 | x6 | x6 |[M:7/8] x7 |[M:13/16] x13/2 |[M:5/8] x5 |[M:1/8] x | %10
[M:3/4] x3[K:treble] x3 |[M:5/8][K:bass] x5 |[M:1/8] x |[M:3/4] x6 | x6 | x6 | x6 | x6 | %18
[M:7/8][K:treble] x7 |[M:3/4][K:bass] x3[K:treble] x3 | x6 | x6 | x6 |[M:7/8] x7 | x7 | x7 | %26
[M:5/8][K:bass] D,-D,- D,3 |] %27

